X: 30888
T: Out The Gap
R: waltz
M: 3/4
K: Gmajor
gf|:|e2 e fg f|e2 e f ga|b2 b a gf|
e2e fgf|efe dBc|ded cBA|1 G4|2G3 ABc||
d2 g2 bg|ag g2 gd|ege dBA|A3 Bde|
f3 gag|gf f3 e|def edc|B3 ABc|
d2 g2 bg|ag g2 gd|ege dcd|B6|
cef gab|agf edB|ded cBA|G6||

